symbols/web/settings_suggest/materialsymbolsrounded/settings_suggest_wght500grad200fill1_40px.svg

<svg xmlns="http://www.w3.org/2000/svg" height="40" width="40"><path d="M31.75 13.75q-.292 0-.521-.146-.229-.146-.354-.437l-1.167-2.542-2.583-1.167q-.25-.166-.396-.395-.146-.23-.146-.48 0-.25.146-.479.146-.229.396-.396l2.583-1.166 1.167-2.584q.125-.291.354-.395.229-.105.521-.105.25 0 .479.105.229.104.396.395l1.167 2.584 2.541 1.166q.292.167.438.396.146.229.146.479 0 .25-.146.48-.146.229-.438.395l-2.541 1.167-1.167 2.542q-.167.291-.396.437-.229.146-.479.146Zm3.458 12.75q-.208 0-.437-.104t-.313-.354l-.625-1.292-1.291-.625q-.167-.042-.459-.75 0-.208.125-.417.125-.208.334-.333l1.291-.583.625-1.334q.084-.166.75-.458.209 0 .438.125t.312.333l.625 1.334 1.292.583q.167.083.458.75 0 .25-.125.458-.125.209-.333.292l-1.292.625-.625 1.292q-.083.166-.75.458ZM13.792 37.542q-.709 0-1.23-.459-.52-.458-.604-1.166l-.25-2.459q-.333-.041-.729-.208-.396-.167-.646-.417l-2.166.917q-.625.292-1.271.062-.646-.229-1.021-.854l-2.833-4.833q-.375-.583-.23-1.292.146-.708.688-1.125l2-1.375q-.167-.375-.167-.708 0-.333.167-.708l-2-1.375q-.542-.417-.688-1.104-.145-.688.23-1.313l2.833-4.875q.375-.542 1.021-.792.646-.25 1.271.042l2.166.917q.25-.25.646-.417.396-.167.729-.208l.25-2.459q.084-.666.604-1.145.521-.48 1.23-.48h5.666q.709 0 1.209.48.5.479.625 1.145l.291 2.459q.292.041.688.208.396.167.646.417l2.166-.917q.584-.292 1.25-.042.667.25 1.042.792l2.833 4.875q.375.625.23 1.313-.146.687-.688 1.104l-2 1.375q.167.375.167.708 0 .333-.167.708l2 1.375q.542.417.688 1.125.145.709-.23 1.292l-2.833 4.833q-.375.625-1.042.854-.666.23-1.25-.062l-2.166-.917q-.25.25-.646.417-.396.167-.688.208l-.291 2.459q-.125.708-.625 1.166-.5.459-1.209.459Zm2.833-8.625q2.25 0 3.771-1.5t1.521-3.792q0-2.25-1.521-3.771t-3.771-1.521q-2.25 0-3.771 1.521t-1.521 3.771q0 2.292 1.521 3.792t3.771 1.5Zm0-5.292Z"/></svg>

<svg xmlns="http://www.w3.org/2000/svg" height="40" width="40"><path d="M31.75 13.75Q31.458 13.75 31.229 13.604Q31 13.458 30.875 13.167L29.708 10.625L27.125 9.458Q26.875 9.292 26.729 9.063Q26.583 8.833 26.583 8.583Q26.583 8.333 26.729 8.104Q26.875 7.875 27.125 7.708L29.708 6.542L30.875 3.958Q31 3.667 31.229 3.563Q31.458 3.458 31.75 3.458Q32 3.458 32.229 3.563Q32.458 3.667 32.625 3.958L33.792 6.542L36.333 7.708Q36.625 7.875 36.771 8.104Q36.917 8.333 36.917 8.583Q36.917 8.833 36.771 9.063Q36.625 9.292 36.333 9.458L33.792 10.625L32.625 13.167Q32.458 13.458 32.229 13.604Q32 13.75 31.75 13.75ZM35.208 26.5Q35 26.5 34.771 26.396Q34.542 26.292 34.458 26.042L33.833 24.75L32.542 24.125Q32.375 24.083 32.083 23.375Q32.083 23.167 32.208 22.958Q32.333 22.75 32.542 22.625L33.833 22.042L34.458 20.708Q34.542 20.542 35.208 20.25Q35.417 20.25 35.646 20.375Q35.875 20.5 35.958 20.708L36.583 22.042L37.875 22.625Q38.042 22.708 38.333 23.375Q38.333 23.625 38.208 23.833Q38.083 24.042 37.875 24.125L36.583 24.75L35.958 26.042Q35.875 26.208 35.208 26.5ZM13.792 37.542Q13.083 37.542 12.562 37.083Q12.042 36.625 11.958 35.917L11.708 33.458Q11.375 33.417 10.979 33.25Q10.583 33.083 10.333 32.833L8.167 33.75Q7.542 34.042 6.896 33.812Q6.25 33.583 5.875 32.958L3.042 28.125Q2.667 27.542 2.812 26.833Q2.958 26.125 3.5 25.708L5.5 24.333Q5.333 23.958 5.333 23.625Q5.333 23.292 5.5 22.917L3.5 21.542Q2.958 21.125 2.812 20.438Q2.667 19.75 3.042 19.125L5.875 14.25Q6.25 13.708 6.896 13.458Q7.542 13.208 8.167 13.5L10.333 14.417Q10.583 14.167 10.979 14Q11.375 13.833 11.708 13.792L11.958 11.333Q12.042 10.667 12.562 10.188Q13.083 9.708 13.792 9.708H19.458Q20.167 9.708 20.667 10.188Q21.167 10.667 21.292 11.333L21.583 13.792Q21.875 13.833 22.271 14Q22.667 14.167 22.917 14.417L25.083 13.5Q25.667 13.208 26.333 13.458Q27 13.708 27.375 14.25L30.208 19.125Q30.583 19.75 30.438 20.438Q30.292 21.125 29.75 21.542L27.75 22.917Q27.917 23.292 27.917 23.625Q27.917 23.958 27.75 24.333L29.75 25.708Q30.292 26.125 30.438 26.833Q30.583 27.542 30.208 28.125L27.375 32.958Q27 33.583 26.333 33.812Q25.667 34.042 25.083 33.75L22.917 32.833Q22.667 33.083 22.271 33.25Q21.875 33.417 21.583 33.458L21.292 35.917Q21.167 36.625 20.667 37.083Q20.167 37.542 19.458 37.542ZM16.625 28.917Q18.875 28.917 20.396 27.417Q21.917 25.917 21.917 23.625Q21.917 21.375 20.396 19.854Q18.875 18.333 16.625 18.333Q14.375 18.333 12.854 19.854Q11.333 21.375 11.333 23.625Q11.333 25.917 12.854 27.417Q14.375 28.917 16.625 28.917ZM16.625 23.625Z"/></svg>
